X: 233
T: Boston
B: australian dance tunes
M:6/8
L:1/8
Q: 3/8=100
K:G
V:1 
d2 d B2 c|d3 d3|c3 A3|c2A FEF|!
d2 d B2 c|d3 d3|c2 A FEF|1G3 G3:|2G3 G2 D||!
E2 E A,CE|D2 D G,B,D|C2 C A,CE|D3 B,2D|!
E2 E A,CE|D2 D B,2 D|F2 F E2 F|1 G3 G2 D:|2 G3 G2||
% abcbook-tune_id 62a07850b6a02c82f07cd859


% abcbook-boost 0
% abcbook-tablature 
% abcbook-transpose 
% abcbook-lastupdated 1654683750443
% abcbook-soundfonts 
% abcbook-repeats 1


